Newaita-dark/apps/64/five-or-more.svg

<svg height="64" viewBox="0 0 64 64" width="64" xmlns="http://www.w3.org/2000/svg" xmlns:xlink="http://www.w3.org/1999/xlink"><linearGradient id="a" gradientUnits="userSpaceOnUse" x1="31.75304" x2="31.75304" y1="56.067872" y2="58.71396000006"><stop offset="0" stop-opacity=".27451"/><stop offset="1" stop-opacity="0"/></linearGradient><linearGradient id="b"><stop offset="0" stop-opacity=".313726"/><stop offset=".222222" stop-opacity=".27451"/><stop offset="1" stop-opacity="0"/></linearGradient><radialGradient id="c" cx="450.908936" cy="189.579361" gradientTransform="matrix(.00000035 -.156265 -.281277 -.0000002 104.261296 127.190665)" gradientUnits="userSpaceOnUse" r="21.166656" xlink:href="#b"/><radialGradient id="d" cx="450.908936" cy="189.579361" gradientTransform="matrix(-.00000035 .156265 .281277 .0000002 -40.755227 -15.054958)" gradientUnits="userSpaceOnUse" r="21.166656" xlink:href="#b"/><radialGradient id="e" cx="450.908936" cy="189.579361" gradientTransform="matrix(-.00000035 -.156265 .281277 -.0000002 -40.755227 127.190665)" gradientUnits="userSpaceOnUse" r="21.166656" xlink:href="#b"/><radialGradient id="f" cx="450.908936" cy="189.579361" gradientTransform="matrix(.00000035 .156265 -.281277 .0000002 104.261293 -15.054959)" gradientUnits="userSpaceOnUse" r="21.166656" xlink:href="#b"/><linearGradient id="g"><stop offset="0" stop-color="#9fa8da"/><stop offset="1" stop-color="#c5cae9"/></linearGradient><linearGradient id="h" gradientUnits="userSpaceOnUse" x1="21.16869799994" x2="21.16869799994" xlink:href="#g" y1="56.067868" y2="5.79221000013"/><linearGradient id="i" gradientTransform="matrix(0 .125012 .125012 0 27.700592 -.822993)" gradientUnits="userSpaceOnUse" x1="455.083313" x2="52.916653" xlink:href="#g" y1="-62.833569" y2="-62.833569"/><linearGradient id="j" gradientUnits="userSpaceOnUse" x1="19.845655" x2="19.845655" y1="25.637863625" y2="11.08438199987"><stop offset="0" stop-color="#26c6da"/><stop offset="1" stop-color="#4dd0e1"/></linearGradient><linearGradient id="k" gradientUnits="userSpaceOnUse" x1="44.983473" x2="44.983473" y1="25.637865625" y2="11.08438399987"><stop offset="0" stop-color="#ff7043"/><stop offset="1" stop-color="#ff8a65"/></linearGradient><linearGradient id="l" gradientUnits="userSpaceOnUse" x1="19.845657" x2="19.845657" y1="50.775682625" y2="36.22220099987"><stop offset="0" stop-color="#ab47bc"/><stop offset="1" stop-color="#ba68c8"/></linearGradient><path d="m11.90625 55.871094h39.691406v2.941406h-39.691406zm0 0" fill="url(#a)"/><path d="m51.597656 56.066406h5.292969v-2.644531h-5.292969zm0 0" fill="url(#c)"/><path d="m11.90625 56.066406h-5.292969v2.648438h5.292969zm0 0" fill="url(#d)"/><path d="m11.90625 56.066406h-5.292969v-2.644531h5.292969zm0 0" fill="url(#e)"/><path d="m51.597656 56.066406h5.292969v2.648438h-5.292969zm0 0" fill="url(#f)"/><path d="m9.261719 5.792969h44.984375c1.460937 0 2.644531 1.183593 2.644531 2.644531v44.984375c0 1.460937-1.183594 2.644531-2.644531 2.644531h-44.984375c-1.460938 0-2.648438-1.183594-2.648438-2.644531v-44.984375c0-1.460938 1.1875-2.644531 2.648438-2.644531zm0 0" fill="url(#h)"/><path d="m31.753906 5.792969v25.136719h25.136719v-22.492188c0-1.464844-1.179687-2.644531-2.644531-2.644531zm0 0" fill="url(#h)"/><path d="m9.261719 5.941406c-1.464844 0-2.648438 1.183594-2.648438 2.648438v.328125c0-1.464844 1.183594-2.648438 2.648438-2.644531h44.984375c1.464844-.003907 2.644531 1.179687 2.644531 2.644531v-.328125c0-1.464844-1.179687-2.648438-2.644531-2.648438zm0 0" fill="#fff" fill-opacity=".392157"/><path d="m6.613281 30.929688h25.140625v25.136718h-22.492187c-1.464844 0-2.648438-1.179687-2.648438-2.644531zm0 0" fill="url(#i)"/><path d="m19.183594 11.085938c4.019531 0 7.277344 3.257812 7.277344 7.273437 0 4.019531-3.257813 7.277344-7.277344 7.277344-4.019532 0-7.277344-3.257813-7.277344-7.277344 0-4.015625 3.257812-7.273437 7.277344-7.273437zm0 0" fill="url(#j)"/><path d="m44.320312 11.085938c4.019532 0 7.277344 3.257812 7.277344 7.273437 0 4.019531-3.257812 7.277344-7.277344 7.277344-4.015624 0-7.273437-3.257813-7.273437-7.277344 0-4.015625 3.257813-7.273437 7.273437-7.273437zm0 0" fill="url(#k)"/><path d="m19.183594 36.222656c4.019531 0 7.277344 3.257813 7.277344 7.277344s-3.257813 7.277344-7.277344 7.277344c-4.019532 0-7.277344-3.257813-7.277344-7.277344s3.257812-7.277344 7.277344-7.277344zm0 0" fill="url(#l)"/><path d="m19.183594 11.085938c-4.03125 0-7.277344 3.242187-7.277344 7.273437 0 .167969.007812.332031.019531.496094.253907-3.796875 3.394531-6.777344 7.257813-6.777344 3.863281 0 7.007812 2.980469 7.261718 6.777344.007813-.164063.015626-.328125.015626-.496094 0-4.03125-3.246094-7.273437-7.277344-7.273437zm0 0" fill="#fff" fill-opacity=".392157"/><path d="m44.320312 11.085938c-4.03125 0-7.273437 3.242187-7.273437 7.273437 0 .167969.003906.332031.015625.496094.253906-3.796875 3.394531-6.777344 7.257812-6.777344 3.867188 0 7.007813 2.980469 7.261719 6.777344.011719-.164063.015625-.328125.015625-.496094 0-4.03125-3.246094-7.273437-7.277344-7.273437zm0 0" fill="#fff" fill-opacity=".392157"/><path d="m19.183594 36.222656c-4.03125 0-7.277344 3.246094-7.277344 7.277344 0 .164062.007812.332031.019531.496094.253907-3.800782 3.394531-6.78125 7.257813-6.78125 3.863281 0 7.007812 2.980468 7.261718 6.78125.007813-.164063.015626-.332032.015626-.496094 0-4.03125-3.246094-7.277344-7.277344-7.277344zm0 0" fill="#fff" fill-opacity=".392157"/><path d="m11.925781 18.855469c-.011719.164062-.019531.332031-.019531.496093 0 4.03125 3.246094 7.277344 7.277344 7.277344s7.277344-3.246094 7.277344-7.277344c0-.164062-.007813-.332031-.015626-.496093-.253906 3.800781-3.398437 6.78125-7.261718 6.78125-3.863282 0-7.003906-2.980469-7.257813-6.78125zm0 0" fill-opacity=".235294"/><path d="m37.0625 18.855469c-.011719.164062-.015625.332031-.015625.496093 0 4.03125 3.242187 7.277344 7.273437 7.277344s7.277344-3.246094 7.277344-7.277344c0-.164062-.003906-.332031-.015625-.496093-.253906 3.800781-3.394531 6.78125-7.261719 6.78125-3.863281 0-7.003906-2.980469-7.257812-6.78125zm0 0" fill-opacity=".235294"/><path d="m11.925781 43.996094c-.011719.164062-.019531.328125-.019531.496094 0 4.03125 3.246094 7.277343 7.277344 7.277343s7.277344-3.246093 7.277344-7.277343c0-.167969-.007813-.332032-.015626-.496094-.253906 3.796875-3.398437 6.78125-7.261718 6.78125-3.863282 0-7.003906-2.984375-7.257813-6.78125zm0 0" fill-opacity=".235294"/><path d="m153.454096-126.320968c32.153179 0 58.213191 26.060011 58.213191 58.181943 0 32.15318-26.060012 58.213191-58.213191 58.213191-32.15318 0-58.213191-26.060011-58.213191-58.213191 0-32.121932 26.060011-58.181943 58.213191-58.181943zm0 0" fill="none" stroke="#212121" stroke-linecap="round" stroke-width="3" transform="matrix(.125012 0 0 .125012 0 26.877566)"/><path d="m354.528644-126.320968c32.15318 0 58.213191 26.060011 58.213191 58.181943 0 32.15318-26.060011 58.213191-58.213191 58.213191-32.121932 0-58.181944-26.060011-58.181944-58.213191 0-32.121932 26.060012-58.181943 58.181944-58.181943zm0 0" fill="none" stroke="#212121" stroke-linecap="round" stroke-width="3" transform="matrix(.125012 0 0 .125012 0 26.877566)"/><path d="m153.454096 74.75358c32.153179 0 58.213191 26.060011 58.213191 58.213191 0 32.153179-26.060012 58.213191-58.213191 58.213191-32.15318 0-58.213191-26.060012-58.213191-58.213191 0-32.15318 26.060011-58.213191 58.213191-58.213191zm0 0" fill="none" stroke="#212121" stroke-linecap="round" stroke-width="3" transform="matrix(.125012 0 0 .125012 0 26.877566)"/><path d="m6.613281 52.519531v.902344c0 1.464844 1.183594 2.644531 2.648438 2.644531h44.984375c1.464844 0 2.644531-1.179687 2.644531-2.644531v-.902344c0 1.464844-1.179687 2.644531-2.644531 2.644531h-44.984375c-1.464844 0-2.648438-1.179687-2.648438-2.644531zm0 0" fill-opacity=".235294"/><g fill="none" stroke="#212121" stroke-linecap="round" stroke-width="3" transform="matrix(.125012 0 0 .125012 0 26.877566)"><path d="m52.901198 32.413873h201.105796v201.074548h-179.920319c-11.717631 0-21.185477-9.436598-21.185477-21.154229zm0 0"/><path d="m455.081542 32.413873h-201.074548v201.074548h179.920318c11.717631 0 21.15423-9.436598 21.15423-21.154229zm0 0"/><path d="m455.081542 32.413873h-201.074548v-201.074548h179.920318c11.717631 0 21.15423 9.436599 21.15423 21.15423zm0 0"/><path d="m52.901198 32.413873h201.105796v-201.074548h-179.920319c-11.717631 0-21.185477 9.436599-21.185477 21.15423zm0 0"/></g></svg>

<?xml version="1.0" encoding="UTF-8"?>
<svg xmlns="http://www.w3.org/2000/svg" xmlns:xlink="http://www.w3.org/1999/xlink" width="64px" height="64px" viewBox="0 0 64 64" version="1.1">
<defs>
<linearGradient id="linear0" gradientUnits="userSpaceOnUse" x1="254" y1="233.5" x2="254" y2="254.666672" gradientTransform="matrix(0.125012,0,0,0.125012,-0.00000763012,26.87757)">
<stop offset="0" style="stop-color:rgb(0%,0%,0%);stop-opacity:0.27451;"/>
<stop offset="1" style="stop-color:rgb(0%,0%,0%);stop-opacity:0;"/>
</linearGradient>
<radialGradient id="radial0" gradientUnits="userSpaceOnUse" cx="450.908936" cy="189.579361" fx="450.908936" fy="189.579361" r="21.166656" gradientTransform="matrix(0.000000348341,-0.156265,-0.281277,-0.000000203077,104.261296,127.190665)">
<stop offset="0" style="stop-color:rgb(0%,0%,0%);stop-opacity:0.313726;"/>
<stop offset="0.222222" style="stop-color:rgb(0%,0%,0%);stop-opacity:0.27451;"/>
<stop offset="1" style="stop-color:rgb(0%,0%,0%);stop-opacity:0;"/>
</radialGradient>
<radialGradient id="radial1" gradientUnits="userSpaceOnUse" cx="450.908936" cy="189.579361" fx="450.908936" fy="189.579361" r="21.166656" gradientTransform="matrix(-0.000000348341,0.156265,0.281277,0.000000203077,-40.755227,-15.054958)">
<stop offset="0" style="stop-color:rgb(0%,0%,0%);stop-opacity:0.313726;"/>
<stop offset="0.222222" style="stop-color:rgb(0%,0%,0%);stop-opacity:0.27451;"/>
<stop offset="1" style="stop-color:rgb(0%,0%,0%);stop-opacity:0;"/>
</radialGradient>
<radialGradient id="radial2" gradientUnits="userSpaceOnUse" cx="450.908936" cy="189.579361" fx="450.908936" fy="189.579361" r="21.166656" gradientTransform="matrix(-0.000000348341,-0.156265,0.281277,-0.000000203077,-40.755227,127.190665)">
<stop offset="0" style="stop-color:rgb(0%,0%,0%);stop-opacity:0.313726;"/>
<stop offset="0.222222" style="stop-color:rgb(0%,0%,0%);stop-opacity:0.27451;"/>
<stop offset="1" style="stop-color:rgb(0%,0%,0%);stop-opacity:0;"/>
</radialGradient>
<radialGradient id="radial3" gradientUnits="userSpaceOnUse" cx="450.908936" cy="189.579361" fx="450.908936" fy="189.579361" r="21.166656" gradientTransform="matrix(0.000000348341,0.156265,-0.281277,0.000000203077,104.261293,-15.054959)">
<stop offset="0" style="stop-color:rgb(0%,0%,0%);stop-opacity:0.313726;"/>
<stop offset="0.222222" style="stop-color:rgb(0%,0%,0%);stop-opacity:0.27451;"/>
<stop offset="1" style="stop-color:rgb(0%,0%,0%);stop-opacity:0;"/>
</radialGradient>
<linearGradient id="linear1" gradientUnits="userSpaceOnUse" x1="169.333328" y1="233.5" x2="169.333328" y2="-168.666656" gradientTransform="matrix(0.125012,0,0,0.125012,0,26.877566)">
<stop offset="0" style="stop-color:rgb(62.352943%,65.882355%,85.490197%);stop-opacity:1;"/>
<stop offset="1" style="stop-color:rgb(77.254903%,79.215688%,91.37255%);stop-opacity:1;"/>
</linearGradient>
<linearGradient id="linear2" gradientUnits="userSpaceOnUse" x1="169.333328" y1="233.5" x2="169.333328" y2="-168.666656" gradientTransform="matrix(0.125012,0,0,0.125012,0,26.877566)">
<stop offset="0" style="stop-color:rgb(62.352943%,65.882355%,85.490197%);stop-opacity:1;"/>
<stop offset="1" style="stop-color:rgb(77.254903%,79.215688%,91.37255%);stop-opacity:1;"/>
</linearGradient>
<linearGradient id="linear3" gradientUnits="userSpaceOnUse" x1="455.083313" y1="-62.833569" x2="52.916653" y2="-62.833569" gradientTransform="matrix(0,0.125012,0.125012,0,27.700592,-0.822993)">
<stop offset="0" style="stop-color:rgb(62.352943%,65.882355%,85.490197%);stop-opacity:1;"/>
<stop offset="1" style="stop-color:rgb(77.254903%,79.215688%,91.37255%);stop-opacity:1;"/>
</linearGradient>
<linearGradient id="linear4" gradientUnits="userSpaceOnUse" x1="158.75" y1="-9.916667" x2="158.75" y2="-126.333344" gradientTransform="matrix(0.125012,0,0,0.125012,0,26.877566)">
<stop offset="0" style="stop-color:rgb(14.901961%,77.64706%,85.490197%);stop-opacity:1;"/>
<stop offset="1" style="stop-color:rgb(30.19608%,81.568629%,88.235295%);stop-opacity:1;"/>
</linearGradient>
<linearGradient id="linear5" gradientUnits="userSpaceOnUse" x1="158.75" y1="-9.916667" x2="158.75" y2="-126.333344" gradientTransform="matrix(0.125012,0,0,0.125012,25.137818,26.877568)">
<stop offset="0" style="stop-color:rgb(100%,43.921569%,26.274511%);stop-opacity:1;"/>
<stop offset="1" style="stop-color:rgb(100%,54.11765%,39.607844%);stop-opacity:1;"/>
</linearGradient>
<linearGradient id="linear6" gradientUnits="userSpaceOnUse" x1="158.75" y1="-9.916667" x2="158.75" y2="-126.333344" gradientTransform="matrix(0.125012,0,0,0.125012,0.00000208353,52.015385)">
<stop offset="0" style="stop-color:rgb(67.058825%,27.843139%,73.725492%);stop-opacity:1;"/>
<stop offset="1" style="stop-color:rgb(72.941178%,40.784314%,78.431374%);stop-opacity:1;"/>
</linearGradient>
</defs>
<g id="surface1">
<path style=" stroke:none;fill-rule:nonzero;fill:url(#linear0);" d="M 11.90625 55.871094 L 51.597656 55.871094 L 51.597656 58.8125 L 11.90625 58.8125 Z M 11.90625 55.871094 "/>
<path style=" stroke:none;fill-rule:nonzero;fill:url(#radial0);" d="M 51.597656 56.066406 L 56.890625 56.066406 L 56.890625 53.421875 L 51.597656 53.421875 Z M 51.597656 56.066406 "/>
<path style=" stroke:none;fill-rule:nonzero;fill:url(#radial1);" d="M 11.90625 56.066406 L 6.613281 56.066406 L 6.613281 58.714844 L 11.90625 58.714844 Z M 11.90625 56.066406 "/>
<path style=" stroke:none;fill-rule:nonzero;fill:url(#radial2);" d="M 11.90625 56.066406 L 6.613281 56.066406 L 6.613281 53.421875 L 11.90625 53.421875 Z M 11.90625 56.066406 "/>
<path style=" stroke:none;fill-rule:nonzero;fill:url(#radial3);" d="M 51.597656 56.066406 L 56.890625 56.066406 L 56.890625 58.714844 L 51.597656 58.714844 Z M 51.597656 56.066406 "/>
<path style=" stroke:none;fill-rule:nonzero;fill:url(#linear1);" d="M 9.261719 5.792969 L 54.246094 5.792969 C 55.707031 5.792969 56.890625 6.976562 56.890625 8.4375 L 56.890625 53.421875 C 56.890625 54.882812 55.707031 56.066406 54.246094 56.066406 L 9.261719 56.066406 C 7.800781 56.066406 6.613281 54.882812 6.613281 53.421875 L 6.613281 8.4375 C 6.613281 6.976562 7.800781 5.792969 9.261719 5.792969 Z M 9.261719 5.792969 "/>
<path style=" stroke:none;fill-rule:nonzero;fill:url(#linear2);" d="M 31.753906 5.792969 L 31.753906 30.929688 L 56.890625 30.929688 L 56.890625 8.4375 C 56.890625 6.972656 55.710938 5.792969 54.246094 5.792969 Z M 31.753906 5.792969 "/>
<path style=" stroke:none;fill-rule:nonzero;fill:rgb(100%,100%,100%);fill-opacity:0.392157;" d="M 9.261719 5.941406 C 7.796875 5.941406 6.613281 7.125 6.613281 8.589844 L 6.613281 8.917969 C 6.613281 7.453125 7.796875 6.269531 9.261719 6.273438 L 54.246094 6.273438 C 55.710938 6.269531 56.890625 7.453125 56.890625 8.917969 L 56.890625 8.589844 C 56.890625 7.125 55.710938 5.941406 54.246094 5.941406 Z M 9.261719 5.941406 "/>
<path style=" stroke:none;fill-rule:nonzero;fill:url(#linear3);" d="M 6.613281 30.929688 L 31.753906 30.929688 L 31.753906 56.066406 L 9.261719 56.066406 C 7.796875 56.066406 6.613281 54.886719 6.613281 53.421875 Z M 6.613281 30.929688 "/>
<path style=" stroke:none;fill-rule:nonzero;fill:url(#linear4);" d="M 19.183594 11.085938 C 23.203125 11.085938 26.460938 14.34375 26.460938 18.359375 C 26.460938 22.378906 23.203125 25.636719 19.183594 25.636719 C 15.164062 25.636719 11.90625 22.378906 11.90625 18.359375 C 11.90625 14.34375 15.164062 11.085938 19.183594 11.085938 Z M 19.183594 11.085938 "/>
<path style=" stroke:none;fill-rule:nonzero;fill:url(#linear5);" d="M 44.320312 11.085938 C 48.339844 11.085938 51.597656 14.34375 51.597656 18.359375 C 51.597656 22.378906 48.339844 25.636719 44.320312 25.636719 C 40.304688 25.636719 37.046875 22.378906 37.046875 18.359375 C 37.046875 14.34375 40.304688 11.085938 44.320312 11.085938 Z M 44.320312 11.085938 "/>
<path style=" stroke:none;fill-rule:nonzero;fill:url(#linear6);" d="M 19.183594 36.222656 C 23.203125 36.222656 26.460938 39.480469 26.460938 43.5 C 26.460938 47.519531 23.203125 50.777344 19.183594 50.777344 C 15.164062 50.777344 11.90625 47.519531 11.90625 43.5 C 11.90625 39.480469 15.164062 36.222656 19.183594 36.222656 Z M 19.183594 36.222656 "/>
<path style=" stroke:none;fill-rule:nonzero;fill:rgb(100%,100%,100%);fill-opacity:0.392157;" d="M 19.183594 11.085938 C 15.152344 11.085938 11.90625 14.328125 11.90625 18.359375 C 11.90625 18.527344 11.914062 18.691406 11.925781 18.855469 C 12.179688 15.058594 15.320312 12.078125 19.183594 12.078125 C 23.046875 12.078125 26.191406 15.058594 26.445312 18.855469 C 26.453125 18.691406 26.460938 18.527344 26.460938 18.359375 C 26.460938 14.328125 23.214844 11.085938 19.183594 11.085938 Z M 19.183594 11.085938 "/>
<path style=" stroke:none;fill-rule:nonzero;fill:rgb(100%,100%,100%);fill-opacity:0.392157;" d="M 44.320312 11.085938 C 40.289062 11.085938 37.046875 14.328125 37.046875 18.359375 C 37.046875 18.527344 37.050781 18.691406 37.0625 18.855469 C 37.316406 15.058594 40.457031 12.078125 44.320312 12.078125 C 48.1875 12.078125 51.328125 15.058594 51.582031 18.855469 C 51.59375 18.691406 51.597656 18.527344 51.597656 18.359375 C 51.597656 14.328125 48.351562 11.085938 44.320312 11.085938 Z M 44.320312 11.085938 "/>
<path style=" stroke:none;fill-rule:nonzero;fill:rgb(100%,100%,100%);fill-opacity:0.392157;" d="M 19.183594 36.222656 C 15.152344 36.222656 11.90625 39.46875 11.90625 43.5 C 11.90625 43.664062 11.914062 43.832031 11.925781 43.996094 C 12.179688 40.195312 15.320312 37.214844 19.183594 37.214844 C 23.046875 37.214844 26.191406 40.195312 26.445312 43.996094 C 26.453125 43.832031 26.460938 43.664062 26.460938 43.5 C 26.460938 39.46875 23.214844 36.222656 19.183594 36.222656 Z M 19.183594 36.222656 "/>
<path style=" stroke:none;fill-rule:nonzero;fill:rgb(0%,0%,0%);fill-opacity:0.235294;" d="M 11.925781 18.855469 C 11.914062 19.019531 11.90625 19.1875 11.90625 19.351562 C 11.90625 23.382812 15.152344 26.628906 19.183594 26.628906 C 23.214844 26.628906 26.460938 23.382812 26.460938 19.351562 C 26.460938 19.1875 26.453125 19.019531 26.445312 18.855469 C 26.191406 22.65625 23.046875 25.636719 19.183594 25.636719 C 15.320312 25.636719 12.179688 22.65625 11.925781 18.855469 Z M 11.925781 18.855469 "/>
<path style=" stroke:none;fill-rule:nonzero;fill:rgb(0%,0%,0%);fill-opacity:0.235294;" d="M 37.0625 18.855469 C 37.050781 19.019531 37.046875 19.1875 37.046875 19.351562 C 37.046875 23.382812 40.289062 26.628906 44.320312 26.628906 C 48.351562 26.628906 51.597656 23.382812 51.597656 19.351562 C 51.597656 19.1875 51.59375 19.019531 51.582031 18.855469 C 51.328125 22.65625 48.1875 25.636719 44.320312 25.636719 C 40.457031 25.636719 37.316406 22.65625 37.0625 18.855469 Z M 37.0625 18.855469 "/>
<path style=" stroke:none;fill-rule:nonzero;fill:rgb(0%,0%,0%);fill-opacity:0.235294;" d="M 11.925781 43.996094 C 11.914062 44.160156 11.90625 44.324219 11.90625 44.492188 C 11.90625 48.523438 15.152344 51.769531 19.183594 51.769531 C 23.214844 51.769531 26.460938 48.523438 26.460938 44.492188 C 26.460938 44.324219 26.453125 44.160156 26.445312 43.996094 C 26.191406 47.792969 23.046875 50.777344 19.183594 50.777344 C 15.320312 50.777344 12.179688 47.792969 11.925781 43.996094 Z M 11.925781 43.996094 "/>
<path style="fill:none;stroke-width:3;stroke-linecap:round;stroke-linejoin:miter;stroke:rgb(12.941177%,12.941177%,12.941177%);stroke-opacity:1;stroke-miterlimit:4;" d="M 153.454096 -126.320968 C 185.607275 -126.320968 211.667287 -100.260957 211.667287 -68.139025 C 211.667287 -35.985845 185.607275 -9.925834 153.454096 -9.925834 C 121.300916 -9.925834 95.240905 -35.985845 95.240905 -68.139025 C 95.240905 -100.260957 121.300916 -126.320968 153.454096 -126.320968 Z M 153.454096 -126.320968 " transform="matrix(0.125012,0,0,0.125012,0,26.877566)"/>
<path style="fill:none;stroke-width:3;stroke-linecap:round;stroke-linejoin:miter;stroke:rgb(12.941177%,12.941177%,12.941177%);stroke-opacity:1;stroke-miterlimit:4;" d="M 354.528644 -126.320968 C 386.681824 -126.320968 412.741835 -100.260957 412.741835 -68.139025 C 412.741835 -35.985845 386.681824 -9.925834 354.528644 -9.925834 C 322.406712 -9.925834 296.3467 -35.985845 296.3467 -68.139025 C 296.3467 -100.260957 322.406712 -126.320968 354.528644 -126.320968 Z M 354.528644 -126.320968 " transform="matrix(0.125012,0,0,0.125012,0,26.877566)"/>
<path style="fill:none;stroke-width:3;stroke-linecap:round;stroke-linejoin:miter;stroke:rgb(12.941177%,12.941177%,12.941177%);stroke-opacity:1;stroke-miterlimit:4;" d="M 153.454096 74.75358 C 185.607275 74.75358 211.667287 100.813591 211.667287 132.966771 C 211.667287 165.11995 185.607275 191.179962 153.454096 191.179962 C 121.300916 191.179962 95.240905 165.11995 95.240905 132.966771 C 95.240905 100.813591 121.300916 74.75358 153.454096 74.75358 Z M 153.454096 74.75358 " transform="matrix(0.125012,0,0,0.125012,0,26.877566)"/>
<path style=" stroke:none;fill-rule:nonzero;fill:rgb(0%,0%,0%);fill-opacity:0.235294;" d="M 6.613281 52.519531 L 6.613281 53.421875 C 6.613281 54.886719 7.796875 56.066406 9.261719 56.066406 L 54.246094 56.066406 C 55.710938 56.066406 56.890625 54.886719 56.890625 53.421875 L 56.890625 52.519531 C 56.890625 53.984375 55.710938 55.164062 54.246094 55.164062 L 9.261719 55.164062 C 7.796875 55.164062 6.613281 53.984375 6.613281 52.519531 Z M 6.613281 52.519531 "/>
<path style="fill:none;stroke-width:3;stroke-linecap:round;stroke-linejoin:miter;stroke:rgb(12.941177%,12.941177%,12.941177%);stroke-opacity:1;stroke-miterlimit:4;" d="M 52.901198 32.413873 L 254.006994 32.413873 L 254.006994 233.488421 L 74.086675 233.488421 C 62.369044 233.488421 52.901198 224.051823 52.901198 212.334192 Z M 52.901198 32.413873 " transform="matrix(0.125012,0,0,0.125012,0,26.877566)"/>
<path style="fill:none;stroke-width:3;stroke-linecap:round;stroke-linejoin:miter;stroke:rgb(12.941177%,12.941177%,12.941177%);stroke-opacity:1;stroke-miterlimit:4;" d="M 455.081542 32.413873 L 254.006994 32.413873 L 254.006994 233.488421 L 433.927312 233.488421 C 445.644943 233.488421 455.081542 224.051823 455.081542 212.334192 Z M 455.081542 32.413873 " transform="matrix(0.125012,0,0,0.125012,0,26.877566)"/>
<path style="fill:none;stroke-width:3;stroke-linecap:round;stroke-linejoin:miter;stroke:rgb(12.941177%,12.941177%,12.941177%);stroke-opacity:1;stroke-miterlimit:4;" d="M 455.081542 32.413873 L 254.006994 32.413873 L 254.006994 -168.660675 L 433.927312 -168.660675 C 445.644943 -168.660675 455.081542 -159.224076 455.081542 -147.506445 Z M 455.081542 32.413873 " transform="matrix(0.125012,0,0,0.125012,0,26.877566)"/>
<path style="fill:none;stroke-width:3;stroke-linecap:round;stroke-linejoin:miter;stroke:rgb(12.941177%,12.941177%,12.941177%);stroke-opacity:1;stroke-miterlimit:4;" d="M 52.901198 32.413873 L 254.006994 32.413873 L 254.006994 -168.660675 L 74.086675 -168.660675 C 62.369044 -168.660675 52.901198 -159.224076 52.901198 -147.506445 Z M 52.901198 32.413873 " transform="matrix(0.125012,0,0,0.125012,0,26.877566)"/>
</g>
</svg>
